X:47
T:The Black Swans
M:3/4
C:words: Anon,    music: Neil Colquhon
Q:220
L:1/4
K:D
A, |&quot;D&quot; D2 D |&quot;A7&quot;A A2|&quot;D&quot;F2 D  |&quot;D7&quot;D2 D|&quot;G&quot;B2 B|B2 A|&quot;C&quot;(G3|G2) G|
W:The    rest-less   shad-ows   by   me      flit, And   day will   soon be        o'er,_____    As
&quot;A&quot;A2 A|B A2|&quot;D7&quot;B2 A|&quot;Bm&quot;F2 D|&quot;G&quot; F2 E|D D2|&quot;Em&quot;(B,3|&quot;A7&quot;B,2)A,|&quot;D&quot;D2 D| 
W:in  the      dy - ing     light   I       sit,  Out   -side my     wha -re        door._____    A      -way  a-
&quot;A7&quot;A2 A|&quot;D&quot;F2 D|&quot;D7&quot;D2 D|&quot;G&quot;B2 B| B2 A|&quot;C&quot;(G3 |G2) G|&quot;A7&quot;A2 A|
W:-cross  the    east   I        see  The   black swans    home-ward     come,            Through   sun-set       
B2 A|&quot;D&quot;B2 A|&quot;Bm&quot;F2 D|&quot;G&quot; F E2|D2 D|&quot;D6&quot;(B,3|B,) &quot;CHORUS&quot;(B, D)||    
W:skies that     gleam on         me,   a           dig  - ger      scra    -ping     gum._______      Yo   -  
&quot;C&quot;G3|&quot;F&quot;A z2|z (=C =F)|&quot;G&quot;G3|&quot;A7&quot;A z2|&quot;G&quot;z (D B,)|&quot;D&quot;D3|D3|D z2||
W:-ho         -wup!                Yo       -          ho    -    wup!            Yo        - ho!_____________
